X:1
T:Title
%%score { 1 | 2 }
L:1/8
M:4/4
K:A
V:1 treble nm="Grand Piano"
V:2 bass 
V:1
 z4 z2[Q:1/4=100] [Ec][DB] | [CA]2 [CE][CE] [CE][CE][A,C][B,D] | [CE][CE][DF][DG] [CA]2 [CA][DB] | %3
 [Ec][Ec] [Ec]2 [^Dc][DB][DA][Dc] | [DB]6 [Ec][DB] |[M:3/4] [CA]2 [CE][CE] [CE][CE] | %6
[M:1/4] [A,C][B,D] |[M:4/4] [CE][CE][DF][DG] [CA]2 [EA]B | c2 [Fd][Fd] ccBB |[M:3/4] [CA]6 | %10
[M:1/4] [CA][DB] |[M:4/4] [Ec]2 [Ec][Ec] [Ec][Ec][CA][=CF] | [CE][A,C][CF][A,C] [CE]2 [CA][DB] | %13
 [Ec][Ec][Ec][Ec] [Ee][EA][DG][CA] | [DB]6 [Ec][DB] |[M:3/4] [CA]2 [CE][CE] [CE][CE] | %16
[M:1/4] [A,C][B,D] |[M:4/4] [CE][CE][DF][DG] [CA]2 [CA][DB] | c2 [Fd][Fd] ccBB |[M:3/4] [CA]6 |] %20
V:2
 z4 z2 [A,,A,][A,,A,] | [A,,E,]2 [A,,A,][A,,A,] [A,,A,][A,,A,][A,,E,][A,,E,] | %2
 [A,,A,][A,,A,][D,A,][B,,E,] [A,,E,]2 [A,,E,][A,,A,] | %3
 [A,,A,][A,,A,] [A,,A,]2 [B,,A,][B,,F,][B,,B,][B,,A,] | [E,G,]6 [A,,A,][A,,A,] | %5
[M:3/4] [A,,E,]2 [A,,A,][A,,A,] [A,,A,][A,,A,] |[M:1/4] [A,,E,][A,,E,] | %7
[M:4/4] [A,,A,][A,,A,][F,A,][B,,E,] [A,,E,]2 [C,E,][E,G,E] | %8
 [A,E]2 [D,A,][D,A,] [E,A,E][E,A,E][E,G,D][E,G,D] |[M:3/4] [A,,E,]6 |[M:1/4] [A,,E,][A,,A,] | %11
[M:4/4] [A,,A,]2 [A,,A,][A,,A,] [A,,A,][A,,A,][A,,E,][A,,^D,] | %12
 [A,,E,][A,,E,][A,,A,][A,,E,] [A,,A,]2 [A,,A,][A,,A,] | %13
 [A,,A,][A,,A,][A,,A,][A,,A,] [C,A,][C,A,][B,,E,][A,,E,] | [E,G,]6 [A,,A,][A,,A,] | %15
[M:3/4] [A,,E,]2 [A,,A,][A,,A,] [A,,A,][A,,A,] |[M:1/4] [A,,E,][A,,E,] | %17
[M:4/4] [A,,A,][A,,A,][F,A,][B,,E,] [A,,E,]2 [A,,E,][A,,A,] | %18
 [A,E]2 [D,A,][D,A,] [E,A,E][E,A,E][E,G,D][E,G,D] |[M:3/4] [A,,E,]6 |] %20

